src/rounded/icons/fi-rr-test.svg

<svg id="Layer_1" height="512" viewBox="0 0 24 24" width="512" xmlns="http://www.w3.org/2000/svg" data-name="Layer 1"><path d="m16 17a1 1 0 0 1 0 2h-1a1 1 0 0 1 0-2zm-2-2a1 1 0 0 1 -1-1v-1h-2v1a1 1 0 0 1 -2 0v-4a3 3 0 0 1 6 0v4a1 1 0 0 1 -1 1zm-1-4v-1a1 1 0 0 0 -2 0v1zm-1.711 5.3-1.612 1.63a.25.25 0 0 1 -.344.01l-.616-.64a1 1 0 0 0 -1.434 1.4l.626.644a2.255 2.255 0 0 0 3.186 0l1.616-1.644a1 1 0 0 0 -1.422-1.4zm9.711-9.643v12.343a5.006 5.006 0 0 1 -5 5h-8a5.006 5.006 0 0 1 -5-5v-14a5.006 5.006 0 0 1 5-5h6.343a4.969 4.969 0 0 1 3.536 1.465l1.656 1.656a4.969 4.969 0 0 1 1.465 3.536zm-4.535-3.778a3.042 3.042 0 0 0 -.465-.379v2.5h2.5a3.042 3.042 0 0 0 -.38-.465zm2.535 4.121h-3a2 2 0 0 1 -2-2v-3h-6a3 3 0 0 0 -3 3v14a3 3 0 0 0 3 3h8a3 3 0 0 0 3-3z"/></svg>

<svg id="Layer_1" data-name="Layer 1" xmlns="http://www.w3.org/2000/svg" viewBox="0 0 24 24"><path d="M16,17a1,1,0,0,1,0,2H15a1,1,0,0,1,0-2Zm-2-2a1,1,0,0,1-1-1V13H11v1a1,1,0,0,1-2,0V10a3,3,0,0,1,6,0v4A1,1,0,0,1,14,15Zm-1-4V10a1,1,0,0,0-2,0v1Zm-1.711,5.3-1.612,1.63a.25.25,0,0,1-.344.01L8.717,17.3A1,1,0,0,0,7.283,18.7l.626.644a2.255,2.255,0,0,0,3.186,0L12.711,17.7A1,1,0,0,0,11.289,16.3ZM21,6.657V19a5.006,5.006,0,0,1-5,5H8a5.006,5.006,0,0,1-5-5V5A5.006,5.006,0,0,1,8,0h6.343a4.969,4.969,0,0,1,3.536,1.465l1.656,1.656A4.969,4.969,0,0,1,21,6.657ZM16.465,2.879A3.042,3.042,0,0,0,16,2.5V5h2.5a3.042,3.042,0,0,0-.38-.465ZM19,7H16a2,2,0,0,1-2-2V2H8A3,3,0,0,0,5,5V19a3,3,0,0,0,3,3h8a3,3,0,0,0,3-3Z"/></svg>
